docs/assets/layer2-background.svg

<svg width="1080" height="2119" viewBox="0 0 1080 2119" fill="none" xmlns="http://www.w3.org/2000/svg">
<path d="M0 313H1080V1776H0V313Z" fill="white"/>
<path d="M0 237L1080 37V398.5L0 598.5V237Z" fill="white"/>
<path d="M0 1695L1080 1495V1856.5L0 2056.5V1695Z" fill="white"/>
<g clip-path="url(#clip0_341_4)">
<path fill-rule="evenodd" clip-rule="evenodd" d="M975.624 34.0269C975.624 34.0269 985.006 80.2525 983.941 91.2995C982.875 102.346 961.685 126.744 961.685 126.744C961.685 126.744 939.311 174.742 932.089 198.224C924.868 221.706 871.774 283.882 871.774 283.882H758.837C719.298 283.882 658.597 263.206 658.597 263.206C658.597 263.206 601.36 158.821 596.447 153.918C591.534 149.015 563.892 139.15 563.892 139.15C563.892 139.15 518.551 57.8043 515 36.3012L640.781 41.4998L975.624 34.0269Z" fill="url(#paint0_linear_341_4)"/>
<path fill-rule="evenodd" clip-rule="evenodd" d="M975.624 34.0269L916.167 26.5835L881.629 20.6761C881.629 20.6761 731.491 20.9124 684.434 23.6298C684.434 23.6298 635.365 0.354496 624.681 4.94227e-05C613.997 -0.354397 589.906 26.5835 589.906 26.5835L515 36.3012C515 36.3012 549.212 48.1161 575.582 47.7026L550.515 56.1207C555.267 59.7209 560.645 62.4146 566.378 64.0662C576.351 67.0199 651.287 69.2943 686.861 68.8807C722.435 68.4672 737.973 56.1207 737.973 56.1207L721.665 49.9474L740.903 47.6731C740.903 47.6731 799.117 57.8634 821.314 58.5723C838.33 58.543 855.309 56.9711 872.04 53.8759L835.075 42.061C835.075 42.061 854.816 42.2973 888.347 45.3101C918.505 48.0866 954.671 38.5756 975.624 34.0269Z" fill="#CECCD4"/>
<g style="mix-blend-mode:multiply" opacity="0.35">
<path fill-rule="evenodd" clip-rule="evenodd" d="M888.259 45.3396V77.5942L921.081 83.1767C921.081 83.1767 922.531 83.797 926.141 93.0717C929.752 102.346 946.473 125.179 946.473 125.179L961.686 126.862L949.492 154.066C949.492 154.066 931.942 154.243 924.958 158.556C917.973 162.868 902.495 175.805 902.495 175.805L893.202 201.207C893.202 201.207 883.938 154.243 883.317 146.829C882.695 139.416 873.669 107.515 875.089 102.14C876.51 96.7639 874.527 75.7334 874.527 75.7334L872.041 53.8759C872.041 53.8759 824.481 60.2854 819.538 62.0281C814.596 63.7708 812.406 83.6493 812.406 83.6493L796.158 121.102L814.3 175.54L807.315 221.706L805.037 256.412L779.288 284H758.838C758.838 284 742.117 193.793 740.903 188.211C739.69 182.628 745.313 169.691 745.313 169.691L737.174 112.98L737.973 56.1207L721.666 49.9474L740.903 47.6731C740.903 47.6731 801.308 56.6819 811.311 57.6271C821.314 58.5723 872.307 52.9011 872.307 52.9011L841.676 41.7361L888.259 45.3396Z" fill="#A7A7A8"/>
</g>
<g style="mix-blend-mode:multiply" opacity="0.35">
<path fill-rule="evenodd" clip-rule="evenodd" d="M627.463 68.9694L586.71 75.7334L593.191 91.2995L610.949 133.833L632.257 154.066L656.141 162.927L674.727 175.864H658.538L659.781 193.085L668.423 234.082L668.897 266.573L658.597 263.265C658.597 263.265 614.204 182.953 596.447 153.977C596.447 153.977 566.851 144.821 563.892 139.209C560.932 133.597 518.818 55.589 515 36.3013L575.582 47.7026L550.515 56.1207C550.515 56.1207 568.272 63.9776 580.11 65.8384C591.948 67.6993 627.463 68.9694 627.463 68.9694Z" fill="#A7A7A8"/>
</g>
<g style="mix-blend-mode:color-dodge" opacity="0.46">
<path fill-rule="evenodd" clip-rule="evenodd" d="M682.184 23.2457L696.982 31.1617C696.982 31.1617 686.12 33.82 679.787 35.7104C673.454 37.6008 638.797 34.588 632.612 32.7567C626.426 30.9254 603.786 23.2457 603.786 23.2457L602.572 15.5365C602.572 15.5365 619.53 -0.856613 624.68 -3.44254e-05C629.83 0.856544 673.187 18.4607 682.184 23.2457Z" fill="#ABA7B5"/>
</g>
<g style="mix-blend-mode:multiply" opacity="0.33">
<path fill-rule="evenodd" clip-rule="evenodd" d="M588.072 26.8789L602.515 35.7401L625.155 36.3308H673.367C673.367 36.3308 636.343 32.8749 630.719 31.5753C625.096 30.2757 603.787 23.2458 603.787 23.2458L602.574 15.5366L588.072 26.8789Z" fill="#474757"/>
</g>
<g style="mix-blend-mode:multiply" opacity="0.34">
<path fill-rule="evenodd" clip-rule="evenodd" d="M888.259 77.5942L874.527 109.731L872.307 52.9307L833.951 41.7656L888.259 45.3396V77.5942Z" fill="#474757"/>
</g>
<g style="mix-blend-mode:multiply" opacity="0.34">
<path fill-rule="evenodd" clip-rule="evenodd" d="M575.582 47.7026L550.515 56.1207L561.287 134.69C561.287 134.69 527.489 70.4167 515 36.3013L575.582 47.7026Z" fill="#474757"/>
</g>
<g style="mix-blend-mode:multiply" opacity="0.34">
<path fill-rule="evenodd" clip-rule="evenodd" d="M811.311 57.6564L779.288 88.6705L759.459 109.73L755.434 127.748L737.677 116.465L737.973 56.15L721.666 49.9768L740.903 47.7024L811.311 57.6564Z" fill="#474757"/>
</g>
<g style="mix-blend-mode:multiply" opacity="0.2">
<path d="M643.799 146.18C644.189 145.248 644.634 144.341 645.131 143.462C645.338 143.049 645.486 142.606 645.723 142.222C646.01 141.702 646.369 141.224 646.789 140.804C647.607 139.916 648.62 139.228 649.748 138.795C650.99 138.393 652.314 138.312 653.596 138.559C653.971 138.667 654.321 138.848 654.625 139.091C654.93 139.334 655.184 139.635 655.371 139.977C655.543 140.154 655.693 140.353 655.815 140.567C655.815 140.833 656.022 141.07 656.111 141.306C656.26 141.847 656.26 142.419 656.111 142.96C655.842 145.035 655.179 147.04 654.158 148.867C653.551 149.969 652.701 150.918 651.672 151.644C650.666 152.391 649.432 152.767 648.18 152.707C647.38 152.645 646.603 152.413 645.901 152.028C645.219 151.6 644.643 151.024 644.214 150.344C643.835 149.726 643.601 149.03 643.529 148.309C643.458 147.588 643.55 146.86 643.799 146.18Z" fill="#A7A7A8"/>
</g>
<g style="mix-blend-mode:multiply" opacity="0.2">
<path d="M665.02 136.166C663.112 133.312 661.85 130.076 661.321 126.685C660.886 124.417 661.101 122.072 661.942 119.921C662.749 118.176 663.741 116.522 664.902 114.988C667.033 111.861 669.966 109.361 673.396 107.752C674.254 107.367 675.146 107.061 676.06 106.836C678.114 105.858 680.389 105.43 682.659 105.595C685.296 105.937 687.752 107.119 689.661 108.966C691.57 110.813 692.83 113.225 693.255 115.845C693.8 119.332 693.154 122.901 691.42 125.976C689.987 128.858 688.396 131.658 686.655 134.365C684.346 137.702 681.476 141.247 677.214 141.749C674.864 142.02 672.485 141.643 670.335 140.659C668.185 139.675 666.347 138.121 665.02 136.166Z" fill="#A7A7A8"/>
</g>
<g style="mix-blend-mode:multiply" opacity="0.2">
<path d="M658.776 180.679C658.245 179.386 657.82 178.052 657.503 176.691C657.296 176.071 657.03 175.51 656.882 174.89C656.701 174.045 656.611 173.184 656.615 172.32C656.66 170.288 657.092 168.283 657.888 166.412C658.781 164.315 660.044 162.394 661.617 160.741C662.498 159.883 663.647 159.351 664.873 159.235H665.109C665.439 159.107 665.791 159.047 666.145 159.058H667.181C667.854 159.265 668.431 159.705 668.809 160.298C670.593 162.361 671.852 164.823 672.479 167.476C672.882 169.355 672.882 171.298 672.479 173.176C672.061 175.347 671.105 177.378 669.697 179.084C668.873 180.152 667.872 181.071 666.737 181.801C665.698 182.429 664.538 182.831 663.334 182.983C662.429 183.11 661.507 182.957 660.692 182.545C659.877 182.133 659.209 181.482 658.776 180.679Z" fill="#A7A7A8"/>
</g>
<g style="mix-blend-mode:multiply" opacity="0.2">
<path d="M894.562 173.826C895.953 175.717 904.417 172.32 905.838 170.4C914.717 158.26 915.812 142.281 910.248 145.352C904.684 148.424 884.618 160.062 894.562 173.826Z" fill="#A7A7A8"/>
</g>
<g style="mix-blend-mode:multiply" opacity="0.2">
<path d="M879.025 148.277C879.501 148.062 880.018 147.952 880.54 147.956C881.062 147.96 881.577 148.077 882.05 148.299C882.523 148.52 882.942 148.842 883.278 149.241C883.614 149.64 883.859 150.107 883.997 150.61C884.795 152.831 884.864 155.248 884.193 157.51C883.523 159.772 882.148 161.763 880.268 163.193C874.704 167.594 866.092 162.336 866.151 157.286C866.21 154.066 874.141 150.285 879.025 148.277Z" fill="#A7A7A8"/>
</g>
<g style="mix-blend-mode:multiply" opacity="0.2">
<path d="M736.967 204.929C736.464 211.427 735.161 236.475 735.694 240.58C736.227 244.686 762.626 249.944 763.603 244.597C764.579 239.251 744.75 201.887 740.932 199.583C737.115 197.279 736.967 203.009 736.967 204.929Z" fill="#A7A7A8"/>
</g>
</g>
<path fill-rule="evenodd" clip-rule="evenodd" d="M296.386 1955.15C296.386 1955.15 302.39 2017.86 296.386 2043.87C296.386 2043.87 288.603 2059.06 254.38 2065.65V2115.63C254.38 2115.63 201.897 2123.34 179.362 2111.99L164.24 2096.24C135.577 2058.83 71.9996 1941.92 71.9996 1941.92L173.803 1949.49L296.386 1955.15Z" fill="url(#paint1_linear_341_4)"/>
<path fill-rule="evenodd" clip-rule="evenodd" d="M296.387 1955.15C296.387 1955.15 215.587 1949.26 212.375 1946.24C206.84 1940.8 187.863 1938.06 187.863 1938.06L72.0003 1941.92C72.0003 1941.92 87.7402 1949.49 103.332 1955.15C118.924 1960.82 192.063 1964.07 223.247 1962.45C254.43 1960.82 296.387 1955.15 296.387 1955.15Z" fill="#CECCD4"/>
<g style="mix-blend-mode:multiply" opacity="0.6">
<path fill-rule="evenodd" clip-rule="evenodd" d="M260.805 2064.26L260.113 2064.42C258.309 2064.86 256.406 2065.28 254.43 2065.65V2115.63C254.43 2115.63 201.625 2123.67 179.412 2111.99L164.289 2096.24C134.193 2054.97 71.9997 1941.92 71.9997 1941.92C71.9997 1941.92 103.727 1959.59 120.801 1958.5C117.144 1958.08 152.083 2042.96 156.432 2054.18C160.781 2065.4 185.391 2072.76 185.391 2072.76L221.615 2063.47L227.101 2043.75V1991.48L239.604 2043.87L259.371 2048.51L296.436 2043.87C296.436 2043.87 289.566 2057.11 260.805 2064.26Z" fill="#9696A8"/>
</g>
<g style="mix-blend-mode:color-dodge" opacity="0.46">
<path fill-rule="evenodd" clip-rule="evenodd" d="M212.449 1946.23C212.449 1946.23 179.166 1949.3 166.663 1948.95C154.16 1948.6 127.128 1946.23 127.128 1946.23C127.128 1946.23 168.862 1937.18 187.863 1938.06C187.863 1938.06 208.743 1941.4 212.449 1946.23Z" fill="#ABA7B5"/>
</g>
<g style="mix-blend-mode:multiply" opacity="0.29">
<path d="M261.349 2003.9C262.585 2005.04 270.072 2003.02 271.233 2001.86C279.288 1994.59 280.129 1985.02 275.211 1986.83C270.294 1988.64 252.577 1995.66 261.349 2003.9Z" fill="#A7A7A8"/>
</g>
<g style="mix-blend-mode:multiply" opacity="0.29">
<path d="M247.659 1988.62C248.449 1988.33 249.324 1988.31 250.128 1988.56C250.933 1988.82 251.616 1989.33 252.057 1990.01C252.386 1990.71 252.561 1991.46 252.572 1992.22C252.582 1992.98 252.428 1993.74 252.118 1994.44C251.809 1995.15 251.35 1995.78 250.77 1996.31C250.191 1996.85 249.502 1997.26 248.746 1997.54C243.804 2000.18 236.243 1997.03 236.392 1994.1C236.317 1992.08 243.31 1989.83 247.659 1988.62Z" fill="#A7A7A8"/>
</g>
<g style="mix-blend-mode:multiply" opacity="0.29">
<path d="M153.468 2009.92C149.736 2012.89 135.85 2024.59 134.12 2026.78C132.39 2028.96 148.55 2040.71 152.01 2038.39C155.469 2036.07 160.683 2011.17 159.101 2008.71C157.52 2006.25 154.58 2009.03 153.468 2009.92Z" fill="#A7A7A8"/>
</g>
<path d="M239.603 2043.87L244.397 2062.4L254.404 2065.65V2115.63L228.805 2082.89L221.615 2063.38L227.1 2043.66V1991.55L239.603 2043.87Z" fill="#474757"/>
<defs>
<linearGradient id="paint0_linear_341_4" x1="742.915" y1="336.399" x2="751.788" y2="-33.3483" gradientUnits="userSpaceOnUse">
<stop offset="0.12" stop-color="#CFCCD4"/>
<stop offset="1" stop-color="#2C2733"/>
</linearGradient>
<linearGradient id="paint1_linear_341_4" x1="191.84" y1="2190.18" x2="182.868" y2="1840.03" gradientUnits="userSpaceOnUse">
<stop offset="0.12" stop-color="#CFCCD4"/>
<stop offset="1" stop-color="#2C2733"/>
</linearGradient>
<clipPath id="clip0_341_4">
<rect width="469" height="284" fill="white" transform="translate(515)"/>
</clipPath>
</defs>
</svg>

<svg xmlns="http://www.w3.org/2000/svg" width="1080" height="2119" fill="none" xmlns:v="https://vecta.io/nano"><style><![CDATA[.B{fill-rule:evenodd}.C{fill:#a7a7a8}.D{opacity:.2}.E{fill:#474757}]]></style><g fill="#fff"><path d="M0 313H1080V1776H0V313Z"/><path d="M0 237L1080 37v361.5L0 598.5V237zm0 1458l1080-200v361.5L0 2056.5V1695z"/></g><g clip-path="url(#C)"><g class="B"><path d="M975.624 34.027s9.382 46.226 8.317 57.273-22.256 35.445-22.256 35.445-22.374 47.998-29.596 71.48-60.315 85.658-60.315 85.658H758.837c-39.539 0-100.24-20.676-100.24-20.676s-57.237-104.385-62.15-109.288-32.555-14.768-32.555-14.768S518.551 57.804 515 36.301L640.781 41.5l334.843-7.473z" fill="url(#A)"/><path d="M975.624 34.027l-59.457-7.443-34.538-5.907-197.195 2.954S635.365.354 624.681 0s-34.775 26.583-34.775 26.583L515 36.301s34.212 11.815 60.582 11.401l-25.067 8.418c4.752 3.6 10.13 6.294 15.863 7.945 9.973 2.954 84.909 5.228 120.483 4.815s51.112-12.76 51.112-12.76l-16.308-6.173 19.238-2.274s58.214 10.19 80.411 10.899a281.52 281.52 0 0 0 50.726-4.696l-36.965-11.815s19.741.236 53.272 3.249c30.158 2.776 66.324-6.734 87.277-11.283z" fill="#ceccd4"/></g><g style="mix-blend-mode:multiply" opacity=".35" class="B C"><path d="M888.259 45.34v32.255l32.822 5.582s1.45.62 5.06 9.895 20.332 32.107 20.332 32.107l15.213 1.683-12.194 27.204s-17.55.177-24.534 4.49-22.463 17.249-22.463 17.249l-9.293 25.402s-9.264-46.964-9.885-54.378-9.648-39.314-8.228-44.689-.562-26.407-.562-26.407l-2.486-21.857s-47.56 6.41-52.503 8.152-7.132 21.621-7.132 21.621l-16.248 37.453L814.3 175.54l-6.985 46.166-2.278 34.706L779.288 284h-20.45l-17.935-95.789c-1.213-5.583 4.41-18.52 4.41-18.52l-8.139-56.711.799-56.859-16.307-6.173 19.237-2.274 70.408 9.954c10.003.945 60.996-4.726 60.996-4.726l-30.631-11.165 46.583 3.603z"/></g><g style="mix-blend-mode:multiply" opacity=".35" class="B C"><path d="M627.463 68.969l-40.753 6.764 6.481 15.566 17.758 42.534 21.308 20.233 23.884 8.861 18.586 12.937h-16.189l1.243 17.221 8.642 40.997.474 32.491-10.3-3.308-62.15-109.288s-29.596-9.156-32.555-14.768S518.818 55.589 515 36.301l60.582 11.401-25.067 8.418s17.757 7.857 29.595 9.718 47.353 3.131 47.353 3.131z"/></g><g style="mix-blend-mode:color-dodge" opacity=".46" class="B"><path d="M682.184 23.246l14.798 7.916s-10.862 2.658-17.195 4.549-40.99-1.122-47.175-2.954-28.826-9.511-28.826-9.511l-1.214-7.709S619.53-.857 624.68 0s48.507 18.461 57.504 23.246z" fill="#aba7b5"/></g><g style="mix-blend-mode:multiply" opacity=".33" class="B E"><path d="M588.072 26.879l14.443 8.861 22.64.591h48.212s-37.024-3.456-42.648-4.756-26.932-8.329-26.932-8.329l-1.213-7.709-14.502 11.342z"/></g><g style="mix-blend-mode:multiply" opacity=".34" class="B E"><path d="M888.259 77.594l-13.732 32.137-2.22-56.8-38.356-11.165 54.308 3.574v32.255z"/></g><g style="mix-blend-mode:multiply" opacity=".34" class="B E"><path d="M575.582 47.703l-25.067 8.418 10.772 78.569S527.489 70.417 515 36.301l60.582 11.401z"/></g><g style="mix-blend-mode:multiply" opacity=".34" class="B E"><path d="M811.311 57.656l-32.023 31.014-19.829 21.06-4.025 18.018-17.757-11.283.296-60.315-16.307-6.173 19.237-2.274 70.408 9.954z"/></g><g style="mix-blend-mode:multiply" class="D C"><path d="M643.799 146.18a25.6 25.6 0 0 1 1.332-2.718c.207-.413.355-.856.592-1.24.287-.52.646-.998 1.066-1.418a7.85 7.85 0 0 1 2.959-2.009 7.74 7.74 0 0 1 3.848-.236 2.96 2.96 0 0 1 1.029.532 2.93 2.93 0 0 1 .746.886c.172.177.322.376.444.59 0 .266.207.503.296.739.149.541.149 1.113 0 1.654-.269 2.075-.932 4.08-1.953 5.907a8.3 8.3 0 0 1-2.486 2.777c-1.006.747-2.24 1.123-3.492 1.063a5.65 5.65 0 0 1-2.279-.679 5.37 5.37 0 0 1-1.687-1.684c-.379-.618-.613-1.314-.685-2.035a4.82 4.82 0 0 1 .27-2.129z"/></g><g style="mix-blend-mode:multiply" class="D C"><path d="M665.02 136.166c-1.908-2.854-3.17-6.09-3.699-9.481-.435-2.268-.22-4.613.621-6.764.807-1.745 1.799-3.399 2.96-4.933 2.131-3.127 5.064-5.627 8.494-7.236.858-.385 1.75-.691 2.664-.916a13.14 13.14 0 0 1 6.599-1.241c2.637.342 5.093 1.524 7.002 3.371s3.169 4.259 3.594 6.879a15.69 15.69 0 0 1-1.835 10.131c-1.433 2.882-3.024 5.682-4.765 8.389-2.309 3.337-5.179 6.882-9.441 7.384a12.96 12.96 0 0 1-6.879-1.09c-2.15-.984-3.988-2.538-5.315-4.493z"/></g><g style="mix-blend-mode:multiply" class="D C"><path d="M658.776 180.679c-.531-1.293-.956-2.627-1.273-3.988l-.621-1.801a12 12 0 0 1-.267-2.57c.045-2.032.477-4.037 1.273-5.908a19.06 19.06 0 0 1 3.729-5.671c.881-.858 2.03-1.39 3.256-1.506h.236c.33-.128.682-.188 1.036-.177h1.036c.673.207 1.25.647 1.628 1.24 1.784 2.063 3.043 4.525 3.67 7.178a13.59 13.59 0 0 1 0 5.7 13.2 13.2 0 0 1-2.782 5.908 11.8 11.8 0 0 1-2.96 2.717 8.68 8.68 0 0 1-3.403 1.182c-.905.127-1.827-.026-2.642-.438s-1.483-1.063-1.916-1.866z"/></g><g style="mix-blend-mode:multiply" class="D C"><path d="M894.562 173.826c1.391 1.891 9.855-1.506 11.276-3.426 8.879-12.14 9.974-28.119 4.41-25.048s-25.63 14.71-15.686 28.474z"/></g><g style="mix-blend-mode:multiply" class="D C"><path d="M879.025 148.277c.476-.215.993-.325 1.515-.321a3.62 3.62 0 0 1 1.51.343c.473.221.892.543 1.228.942s.581.866.719 1.369c.798 2.221.867 4.638.196 6.9s-2.045 4.253-3.925 5.683c-5.564 4.401-14.176-.857-14.117-5.907.059-3.22 7.99-7.001 12.874-9.009z"/></g><g style="mix-blend-mode:multiply" class="D C"><path d="M736.967 204.929c-.503 6.498-1.806 31.546-1.273 35.651s26.932 9.364 27.909 4.017-18.853-42.71-22.671-45.014-3.965 3.426-3.965 5.346z"/></g></g><g class="B"><path d="M296.386 1955.15s6.004 62.71 0 88.72c0 0-7.783 15.19-42.006 21.78v49.98s-52.483 7.71-75.018-3.64l-15.122-15.75C135.577 2058.83 72 1941.92 72 1941.92l101.803 7.57 122.583 5.66z" fill="url(#B)"/><path d="M296.387 1955.15s-80.8-5.89-84.012-8.91c-5.535-5.44-24.512-8.18-24.512-8.18L72 1941.92s15.74 7.57 31.332 13.23c15.592 5.67 88.731 8.92 119.915 7.3 31.183-1.63 73.14-7.3 73.14-7.3z" fill="#ceccd4"/></g><g style="mix-blend-mode:multiply" opacity=".6" class="B"><path d="M260.805 2064.26l-.692.16-5.683 1.23v49.98s-52.805 8.04-75.018-3.64l-15.123-15.75C134.193 2054.97 72 1941.92 72 1941.92s31.727 17.67 48.801 16.58c-3.657-.42 31.282 84.46 35.631 95.68s28.959 18.58 28.959 18.58l36.224-9.29 5.486-19.72v-52.27l12.503 52.39 19.767 4.64 37.065-4.64s-6.87 13.24-35.631 20.39z" fill="#9696a8"/></g><g style="mix-blend-mode:color-dodge" opacity=".46" class="B"><path d="M212.449 1946.23s-33.283 3.07-45.786 2.72-39.535-2.72-39.535-2.72 41.734-9.05 60.735-8.17c0 0 20.88 3.34 24.586 8.17z" fill="#aba7b5"/></g><g style="mix-blend-mode:multiply" opacity=".29" class="C"><path d="M261.349 2003.9c1.236 1.14 8.723-.88 9.884-2.04 8.055-7.27 8.896-16.84 3.978-15.03s-22.634 8.83-13.862 17.07z"/></g><g style="mix-blend-mode:multiply" opacity=".29" class="C"><path d="M247.659 1988.62c.79-.29 1.665-.31 2.469-.06.805.26 1.488.77 1.929 1.45a5.37 5.37 0 0 1 .515 2.21 5.32 5.32 0 0 1-.454 2.22 5.51 5.51 0 0 1-1.348 1.87c-.579.54-1.268.95-2.024 1.23-4.942 2.64-12.503-.51-12.354-3.44-.075-2.02 6.918-4.27 11.267-5.48z"/></g><g style="mix-blend-mode:multiply" opacity=".29" class="C"><path d="M153.468 2009.92c-3.732 2.97-17.618 14.67-19.348 16.86-1.73 2.18 14.43 13.93 17.89 11.61s8.673-27.22 7.091-29.68-4.521.32-5.633 1.21z"/></g><path d="M239.603 2043.87l4.794 18.53 10.007 3.25v49.98l-25.599-32.74-7.19-19.51 5.485-19.72v-52.11l12.503 52.32z" class="E"/><defs><linearGradient id="A" x1="742.915" y1="336.399" x2="751.788" y2="-33.348" gradientUnits="userSpaceOnUse"><stop offset=".12" stop-color="#cfccd4"/><stop offset="1" stop-color="#2c2733"/></linearGradient><linearGradient id="B" x1="191.84" y1="2190.18" x2="182.868" y2="1840.03" gradientUnits="userSpaceOnUse"><stop offset=".12" stop-color="#cfccd4"/><stop offset="1" stop-color="#2c2733"/></linearGradient><clipPath id="C"><path fill="#fff" transform="translate(515)" d="M0 0h469v284H0z"/></clipPath></defs></svg>
